X:136
T: ES WAR EIN JUNGES MAEDCHEN VON REIZENDER GESTALT
N: B0167
O: Europa, Mitteleuropa, Deutschland
R: Ballade, Romanze
M: 6/8
L: 1/16
K: Bb
F2 | B2c2B2d4f2 | e2d2c2B4
B2 | e2d2c2f2e2d2 | d4c6
F2 | F2G2F2F2G2F2 | d6G6 | F6z4
f2 | f2e2d2d4f2 | e2d2c2c4
c2 | f4B2e4d2 | d4c6
F2 | B2A2B2c2B2c2 | d3cdef4
f2 | f2e2d2c2d2c2 | B6z4

@@@ Tune index: 1939
